img/icons/handicapped-line.svg

<svg width="24" height="24" fill="none" xmlns="http://www.w3.org/2000/svg"><path d="M14 12c-1.095 0-2-.905-2-2 0-.354.103-.683.268-.973C12.178 9.02 12.092 9 12 9a3.02 3.02 0 00-3 3c0 1.642 1.358 3 3 3 1.641 0 3-1.358 3-3 0-.092-.02-.178-.027-.268-.29.165-.619.268-.973.268z" fill="#FAFAFA"/><path d="M12.054 5c-7.633 0-9.927 6.617-9.948 6.684L2 12l.105.316C2.127 12.383 4.421 19 12.054 19s9.927-6.617 9.948-6.684l.106-.316-.105-.316C21.981 11.617 19.687 5 12.054 5zm0 12c-5.351 0-7.424-3.846-7.926-5 .504-1.158 2.578-5 7.926-5 5.351 0 7.424 3.846 7.926 5-.504 1.158-2.578 5-7.926 5z" fill="#FAFAFA"/><path stroke="#FAFAFA" stroke-width="2" d="M19.707 4.707l-14 14"/></svg>

<svg width="24" height="24" viewBox="0 0 24 24" fill="none" xmlns="http://www.w3.org/2000/svg">
<path d="M14 12C12.905 12 12 11.095 12 10C12 9.646 12.103 9.317 12.268 9.027C12.178 9.02 12.092 9 12 9C10.358 9 9 10.359 9 12C9 13.642 10.358 15 12 15C13.641 15 15 13.642 15 12C15 11.908 14.98 11.822 14.973 11.732C14.683 11.897 14.354 12 14 12Z" fill="#FAFAFA"/>
<path d="M12.054 5C4.421 5 2.127 11.617 2.106 11.684L2 12L2.105 12.316C2.127 12.383 4.421 19 12.054 19C19.687 19 21.981 12.383 22.002 12.316L22.108 12L22.003 11.684C21.981 11.617 19.687 5 12.054 5ZM12.054 17C6.703 17 4.63 13.154 4.128 12C4.632 10.842 6.706 7 12.054 7C17.405 7 19.478 10.846 19.98 12C19.476 13.158 17.402 17 12.054 17Z" fill="#FAFAFA"/>
<line x1="19.7071" y1="4.70711" x2="5.70711" y2="18.7071" stroke="#FAFAFA" stroke-width="2"/>
</svg>
